app/img/label/green.svg

<?xml version="1.0" encoding="UTF-8" standalone="no"?>
<svg width="18px" height="18px" viewBox="0 0 18 18" version="1.1" xmlns="http://www.w3.org/2000/svg" xmlns:xlink="http://www.w3.org/1999/xlink">
    <!-- Generator: Sketch 48.2 (47327) - http://www.bohemiancoding.com/sketch -->
    <title>icn / site-select / label / green</title>
    <desc>Created with Sketch.</desc>
    <defs>
        <path d="M10,1 L16.5,1 C16.7761424,1 17,1.22385763 17,1.5 L17,8 L8.70710678,16.2928932 C8.31658249,16.6834175 7.68341751,16.6834175 7.29289322,16.2928932 L1.70710678,10.7071068 C1.31658249,10.3165825 1.31658249,9.68341751 1.70710678,9.29289322 L10,1 Z M14.5,3 L11,3 L4.35355339,9.64644661 C4.15829124,9.84170876 4.15829124,10.1582912 4.35355339,10.3535534 L7.64644661,13.6464466 C7.84170876,13.8417088 8.15829124,13.8417088 8.35355339,13.6464466 L15,7 L15,3.5 C15,3.22385763 14.7761424,3 14.5,3 Z M12,7 C11.4477153,7 11,6.55228475 11,6 C11,5.44771525 11.4477153,5 12,5 C12.5522847,5 13,5.44771525 13,6 C13,6.55228475 12.5522847,7 12,7 Z" id="path-1"></path>
    </defs>
    <g id="Symbols" stroke="none" stroke-width="1" fill="none" fill-rule="evenodd">
        <g id="icn-/-site-select-/-label-/-green">
            <mask id="mask-2" fill="white">
                <use xlink:href="#path-1"></use>
            </mask>
            <use id="Mask" fill="#4CAF50" xlink:href="#path-1"></use>
        </g>
    </g>
</svg>

<svg width="18" height="18" xmlns="http://www.w3.org/2000/svg" xmlns:xlink="http://www.w3.org/1999/xlink"><defs><path d="M10 1h6.5a.5.5 0 0 1 .5.5V8l-8.293 8.293a1 1 0 0 1-1.414 0l-5.586-5.586a1 1 0 0 1 0-1.414L10 1zm4.5 2H11L4.354 9.646a.5.5 0 0 0 0 .708l3.292 3.292a.5.5 0 0 0 .708 0L15 7V3.5a.5.5 0 0 0-.5-.5zM12 7a1 1 0 1 1 0-2 1 1 0 0 1 0 2z" id="a"/></defs><use fill="#4CAF50" xlink:href="#a" fill-rule="evenodd"/></svg>
